icons/solid/clipboard-check.svg

<svg width="24" height="24" viewBox="0 0 24 24" fill="none" xmlns="http://www.w3.org/2000/svg">
<path fill-rule="evenodd" clip-rule="evenodd" d="M10 4C9.44772 4 9 4.44772 9 5C9 5.47053 9.32497 5.86516 9.76272 5.97168C9.85103 5.99114 9.93353 6 10 6H14C14.0665 6 14.149 5.99114 14.2373 5.97168C14.675 5.86516 15 5.47053 15 5C15 4.44772 14.5523 4 14 4H10ZM10 2C8.69378 2 7.58254 2.83481 7.17071 4H6C4.34315 4 3 5.34315 3 7V19C3 20.6569 4.34315 22 6 22H18C19.6569 22 21 20.6569 21 19V7C21 5.34315 19.6569 4 18 4H16.8293C16.4175 2.83481 15.3062 2 14 2H10ZM15.7071 11.7071C16.0976 11.3166 16.0976 10.6834 15.7071 10.2929C15.3166 9.90237 14.6834 9.90237 14.2929 10.2929L11 13.5858L9.70711 12.2929C9.31658 11.9024 8.68342 11.9024 8.29289 12.2929C7.90237 12.6834 7.90237 13.3166 8.29289 13.7071L10.2929 15.7071C10.6834 16.0976 11.3166 16.0976 11.7071 15.7071L15.7071 11.7071Z" fill="currentColor"/>
</svg>

<svg width="24" height="24" fill="none" xmlns="http://www.w3.org/2000/svg"><path fill-rule="evenodd" clip-rule="evenodd" d="M10 4a1 1 0 000 2h4a1 1 0 000-2h-4zm0-2a3.001 3.001 0 00-2.83 2H6a3 3 0 00-3 3v12a3 3 0 003 3h12a3 3 0 003-3V7a3 3 0 00-3-3h-1.17A3.001 3.001 0 0014 2h-4zm5.707 9.707a1 1 0 00-1.414-1.414L11 13.586l-1.293-1.293a1 1 0 00-1.414 1.414l2 2a1 1 0 001.414 0l4-4z" fill="currentColor"/></svg>
